X: 96
T:Pibddawns Abertawe
M:C|
L:1/16
Q:180
C:Nansi Richards
S:Cadw Twmpath Collection
R:Hornpipe
A:Wales
Z:brian_martin12345@yahoo.com
K:D
A2|DFAF BAFD|dAeA fdAF|GBdg FAdf|edcB AGFE|!
DFAF BAFD|dAeA fdAF|GBdg fedc|d2D2 d2:||!
cd|ecAc fdAd|(3gfe (3fed ecA2|(3gfe (3fed edcd|edcB AGFE|!
DFAF BAFD|dAeA fdAF|GBdg fedc|d2f2 d2:||
